16x16/panel/process-syncing-up.svg

<svg height="16" width="16" xmlns="http://www.w3.org/2000/svg"><path d="m2 1c-.554 0-1 .446-1 1v2.283a1.958 1.958 0 0 1 1-.283h2.586l1.707-1.707a1 1 0 0 1 .707-.293h1c0-.554-.446-1-1-1zm5 2-2 2h-3c-.554 0-1 .446-1 1v7c0 1.108.892 2 2 2h10c1.108 0 2-.892 2-2v-9c0-.554-.446-1-1-1zm1 3 3 4h-2v4h-2v-4h-2z" fill="#bebebe"/></svg>

<svg height="16" width="16" xmlns="http://www.w3.org/2000/svg">
    <path d="M2 1c-.554 0-1 .446-1 1v2.283A1.958 1.958 0 0 1 2 4h2.586l1.707-1.707A1 1 0 0 1 7 2h1c0-.554-.446-1-1-1zm5 2L5 5H2c-.554 0-1 .446-1 1v7c0 1.108.892 2 2 2h10c1.108 0 2-.892 2-2V4c0-.554-.446-1-1-1zm1 3 3 4H9v4H7v-4H5z" fill="#bebebe"/>
</svg>
